apex/img/main-getboost-icon.svg

<svg width="24" height="24" viewBox="0 0 24 24" fill="none" xmlns="http://www.w3.org/2000/svg">
<g clip-path="url(#clip0)">
<path d="M24 12C24 15.2053 22.7518 18.2188 20.4853 20.4853C18.2188 22.7518 15.2053 24 12 24C8.79474 24 5.78119 22.7518 3.51471 20.4853C1.24823 18.2188 -3.8443e-07 15.2053 -5.24537e-07 12C-6.64643e-07 8.79474 1.24823 5.78119 3.51471 3.51471C5.78119 1.24823 8.79474 1.52292e-06 12 1.38281e-06C15.2053 1.24271e-06 18.2188 1.24823 20.4853 3.51471C22.7518 5.78119 24 8.79474 24 12ZM1.875 12C1.875 17.5829 6.41711 22.125 12 22.125C17.5829 22.125 22.125 17.5829 22.125 12C22.125 6.41712 17.5829 1.875 12 1.875C6.41711 1.875 1.875 6.41712 1.875 12ZM12 7.11163L5.51788 13.5938L6.84375 14.9196L12 9.76337L17.1563 14.9196L18.4821 13.5938L12 7.11163Z" fill="white"/>
</g>
<defs>
<clipPath id="clip0">
<rect width="24" height="24" fill="white" transform="translate(0 24) rotate(-90)"/>
</clipPath>
</defs>
</svg>

<svg width="24" height="24" fill="none" xmlns="http://www.w3.org/2000/svg"><g clip-path="url(#clip0)"><path d="M24 12c0 3.205-1.248 6.219-3.515 8.485A11.921 11.921 0 0112 24a11.922 11.922 0 01-8.485-3.515A11.922 11.922 0 010 12c0-3.205 1.248-6.219 3.515-8.485A11.922 11.922 0 0112 0c3.205 0 6.219 1.248 8.485 3.515A11.922 11.922 0 0124 12zM1.875 12c0 5.583 4.542 10.125 10.125 10.125S22.125 17.583 22.125 12 17.583 1.875 12 1.875 1.875 6.417 1.875 12zM12 7.112l-6.482 6.482 1.326 1.326L12 9.763l5.156 5.157 1.326-1.326L12 7.112z" fill="#fff"/></g><defs><clipPath id="clip0"><path fill="#fff" transform="rotate(-90 12 12)" d="M0 0h24v24H0z"/></clipPath></defs></svg>
